austria/municipalities/70903.svg

<?xml version="1.0" encoding="UTF-8"?>
<!DOCTYPE svg PUBLIC "-//W3C//DTD SVG 1.1//EN" "http://www.w3.org/Graphics/SVG/1.1/DTD/svg11.dtd">
<svg xmlns="http://www.w3.org/2000/svg" version="1.1" width="166px" height="192px" style="shape-rendering:geometricPrecision; text-rendering:geometricPrecision; image-rendering:optimizeQuality; fill-rule:evenodd; clip-rule:evenodd" xmlns:xlink="http://www.w3.org/1999/xlink">
<g><path style="opacity:1" fill="#080704" d="M -0.5,-0.5 C 54.8333,-0.5 110.167,-0.5 165.5,-0.5C 165.5,39.8333 165.5,80.1667 165.5,120.5C 157.308,160.691 132.975,184.358 92.5,191.5C 85.8333,191.5 79.1667,191.5 72.5,191.5C 32.6316,183.744 8.29828,160.078 -0.5,120.5C -0.5,80.1667 -0.5,39.8333 -0.5,-0.5 Z"/></g>
<g><path style="opacity:1" fill="#185b2a" d="M 4.5,3.5 C 29.8421,3.1669 55.1754,3.50023 80.5,4.5C 55.524,36.6436 30.3573,68.6436 5,100.5C 4.50002,68.1684 4.33335,35.8351 4.5,3.5 Z"/></g>
<g><path style="opacity:1" fill="#185b2a" d="M 84.5,4.5 C 109.661,3.50226 134.995,3.16893 160.5,3.5C 160.667,35.5017 160.5,67.5017 160,99.5C 134.969,67.6461 109.803,35.9794 84.5,4.5 Z"/></g>
<g><path style="opacity:1" fill="#e6a51c" d="M 81.5,4.5 C 83.4169,5.90929 85.2502,7.57595 87,9.5C 110.619,40.121 134.619,70.4543 159,100.5C 162.767,138.466 147.267,165.299 112.5,181C 73.8002,193.872 41.9669,184.372 17,152.5C 7.15236,137.267 3.15236,120.601 5,102.5C 31.1204,70.2255 56.6204,37.5588 81.5,4.5 Z"/></g>
<g><path style="opacity:1" fill="#0d0b05" d="M 95.5,71.5 C 95.2267,73.451 95.8934,74.951 97.5,76C 95.1367,76.5885 94.1367,78.0885 94.5,80.5C 93.5041,80.4142 92.6708,80.7476 92,81.5C 90.9125,79.0684 90.4125,79.4017 90.5,82.5C 90.4257,84.4109 89.4257,85.5776 87.5,86C 88.5981,86.7697 88.5981,87.603 87.5,88.5C 87.114,90.9366 85.9473,92.9366 84,94.5C 82.2028,92.8444 80.0361,91.8444 77.5,91.5C 72.2202,92.6178 66.8869,92.7845 61.5,92C 62.1667,91.6667 62.8333,91.3333 63.5,91C 62.1367,89.0551 61.3034,86.8884 61,84.5C 56.7179,81.6001 54.2179,77.6001 53.5,72.5C 58.225,68.907 61.8917,63.907 64.5,57.5C 64.2907,56.914 63.9574,56.414 63.5,56C 67.1132,56.2663 70.7799,56.7663 74.5,57.5C 78.123,56.3947 81.7897,55.3947 85.5,54.5C 84.4937,53.6043 84.4937,52.9377 85.5,52.5C 86.6996,55.59 88.5329,58.2566 91,60.5C 91.8632,62.7489 91.3632,64.5822 89.5,66C 92.5475,66.7285 94.5475,68.5618 95.5,71.5 Z"/></g>
<g><path style="opacity:1" fill="#c78f20" d="M 77.5,68.5 C 79.2252,68.8425 79.7252,69.8425 79,71.5C 77.9614,70.7562 77.4614,69.7562 77.5,68.5 Z"/></g>
<g><path style="opacity:1" fill="#d0961f" d="M 70.5,66.5 C 73.4282,67.637 73.7615,68.9704 71.5,70.5C 70.5713,69.3112 70.238,67.9778 70.5,66.5 Z"/></g>
<g><path style="opacity:1" fill="#886622" d="M 75.5,60.5 C 77.0847,61.0024 77.5847,62.0024 77,63.5C 75.9614,62.7562 75.4614,61.7562 75.5,60.5 Z"/></g>
<g><path style="opacity:1" fill="#2b4f25" d="M 103.5,85.5 C 101.143,85.6633 98.8098,85.4966 96.5,85C 94.9632,83.8904 94.2965,82.3904 94.5,80.5C 94.1367,78.0885 95.1367,76.5885 97.5,76C 95.8934,74.951 95.2267,73.451 95.5,71.5C 97.1599,69.7516 99.1599,69.2516 101.5,70C 103.5,72 105.5,74 107.5,76C 104.899,76.9203 102.232,77.587 99.5,78C 101.54,80.1851 102.874,82.6851 103.5,85.5 Z"/></g>
<g><path style="opacity:1" fill="#8e6a20" d="M 74.5,73.5 C 74.56,72.9569 74.8933,72.6236 75.5,72.5C 76.5827,73.365 76.7494,74.365 76,75.5C 75.7216,74.5842 75.2216,73.9175 74.5,73.5 Z"/></g>
<g><path style="opacity:1" fill="#bc8821" d="M 68.5,72.5 C 69.7759,73.3864 69.7759,74.3864 68.5,75.5C 67.4376,74.5754 67.4376,73.5754 68.5,72.5 Z"/></g>
<g><path style="opacity:1" fill="#ce941f" d="M 80.5,73.5 C 83.5954,74.1187 83.9288,75.1187 81.5,76.5C 80.6143,75.675 80.281,74.675 80.5,73.5 Z"/></g>
<g><path style="opacity:1" fill="#987122" d="M 78.5,78.5 C 79.6129,79.9464 79.7796,81.6131 79,83.5C 76.5823,81.3199 73.9156,80.9865 71,82.5C 70.2506,81.365 70.4173,80.365 71.5,79.5C 74.2496,81.0785 76.5829,80.7451 78.5,78.5 Z"/></g>
<g><path style="opacity:1" fill="#7b5d21" d="M 85.5,78.5 C 87.0847,79.0024 87.5847,80.0024 87,81.5C 85.9614,80.7562 85.4614,79.7562 85.5,78.5 Z"/></g>
<g><path style="opacity:1" fill="#304f24" d="M 90.5,82.5 C 92.0174,82.5106 93.1841,83.1772 94,84.5C 94.8357,88.1564 94.169,91.4898 92,94.5C 91.6682,91.4567 90.1682,89.4567 87.5,88.5C 88.5981,87.603 88.5981,86.7697 87.5,86C 89.4257,85.5776 90.4257,84.4109 90.5,82.5 Z"/></g>
<g><path style="opacity:1" fill="#946d21" d="M 73.5,84.5 C 74.6266,85.1217 75.6266,85.955 76.5,87C 74.5106,87.5192 73.5106,86.6859 73.5,84.5 Z"/></g>
<g><path style="opacity:1" fill="#2a5025" d="M 44.5,133.5 C 47.1123,132.629 49.779,131.963 52.5,131.5C 52.631,130.761 52.4643,130.094 52,129.5C 49.0027,130.866 45.836,131.533 42.5,131.5C 42.33,130.178 42.6634,129.011 43.5,128C 45.7695,127.242 47.9361,127.409 50,128.5C 49.9467,125.325 50.78,122.658 52.5,120.5C 59.6718,123.986 62.0051,129.653 59.5,137.5C 62.3916,141.43 64.725,140.93 66.5,136C 62.5657,131.955 61.8991,127.622 64.5,123C 62.5561,120.847 62.0561,118.347 63,115.5C 63.6708,114.748 64.5041,114.414 65.5,114.5C 67.1388,109.287 70.1388,108.287 74.5,111.5C 75.9786,114.305 78.3119,115.972 81.5,116.5C 87.0245,112.595 89.6911,113.928 89.5,120.5C 86.054,120.889 82.7206,121.722 79.5,123C 83.1964,122.997 86.8631,122.497 90.5,121.5C 89.9915,127.596 86.9915,132.096 81.5,135C 77.9975,135.834 74.4975,136.667 71,137.5C 69.6494,139.018 68.1494,140.351 66.5,141.5C 65.9569,141.56 65.6236,141.893 65.5,142.5C 66.7287,143.281 68.062,143.781 69.5,144C 66.9644,144.186 64.631,144.686 62.5,145.5C 59.0371,149.464 55.3705,153.298 51.5,157C 52.7932,157.49 54.1266,157.657 55.5,157.5C 56.2625,158.268 57.2625,158.768 58.5,159C 67.5,159.667 76.5,159.667 85.5,159C 86.7375,158.768 87.7375,158.268 88.5,157.5C 104.38,153.956 115.38,144.622 121.5,129.5C 120.018,126.239 119.185,122.905 119,119.5C 120.101,121.394 121.434,122.061 123,121.5C 123.726,116.761 123.393,112.095 122,107.5C 119.839,102.508 117.172,97.8409 114,93.5C 110.273,90.914 106.773,88.2473 103.5,85.5C 104.239,85.631 104.906,85.4643 105.5,85C 104.154,83.3577 104.487,82.6911 106.5,83C 111.603,86.2665 116.27,90.0998 120.5,94.5C 121.333,93.5 122.167,92.5 123,91.5C 124.716,100.827 126.55,110.161 128.5,119.5C 127.314,131.036 122.98,141.203 115.5,150C 117.349,151.093 119.016,152.426 120.5,154C 116.5,154.333 112.5,154.667 108.5,155C 95.4946,162.237 81.4946,165.737 66.5,165.5C 56.7566,165.397 47.4233,163.397 38.5,159.5C 37.479,158.998 37.3123,158.332 38,157.5C 39.3333,156.167 40.6667,154.833 42,153.5C 43.5994,155.036 45.4328,155.536 47.5,155C 52.1791,151.654 56.1791,147.654 59.5,143C 59.2409,141.739 58.5742,140.739 57.5,140C 51.6402,140.693 46.9736,138.693 43.5,134C 43.7284,133.601 44.0618,133.435 44.5,133.5 Z"/></g>
<g><path style="opacity:1" fill="#294d24" d="M 83.5,104.5 C 82.3775,106.288 82.2109,108.288 83,110.5C 83.7914,109.255 84.2914,107.922 84.5,106.5C 84.369,105.761 84.5357,105.094 85,104.5C 86.1667,106.833 87.3333,109.167 88.5,111.5C 88.3764,112.107 88.0431,112.44 87.5,112.5C 85.6854,113.63 83.6854,114.296 81.5,114.5C 81.5654,114.062 81.3988,113.728 81,113.5C 80.6667,114.167 80.3333,114.833 80,115.5C 78.5679,113.561 76.7346,112.228 74.5,111.5C 74.0472,110.542 73.3805,109.708 72.5,109C 76.0838,106.959 79.5838,104.792 83,102.5C 83.4643,103.094 83.631,103.761 83.5,104.5 Z"/></g>
<g><path style="opacity:1" fill="#826221" d="M 83.5,104.5 C 83.3284,105.492 83.6618,106.158 84.5,106.5C 84.2914,107.922 83.7914,109.255 83,110.5C 82.2109,108.288 82.3775,106.288 83.5,104.5 Z"/></g>
<g><path style="opacity:1" fill="#be8a20" d="M 74.5,111.5 C 76.7346,112.228 78.5679,113.561 80,115.5C 80.3333,114.833 80.6667,114.167 81,113.5C 81.3988,113.728 81.5654,114.062 81.5,114.5C 81.5,115.167 81.5,115.833 81.5,116.5C 78.3119,115.972 75.9786,114.305 74.5,111.5 Z"/></g>
<g><path style="opacity:1" fill="#695520" d="M 87.5,112.5 C 90.5123,114.571 91.179,117.238 89.5,120.5C 89.6911,113.928 87.0245,112.595 81.5,116.5C 81.5,115.833 81.5,115.167 81.5,114.5C 83.6854,114.296 85.6854,113.63 87.5,112.5 Z"/></g>
<g><path style="opacity:1" fill="#b98521" d="M 65.5,114.5 C 68.0892,115.419 70.0892,117.086 71.5,119.5C 68.9108,118.581 66.9108,116.914 65.5,114.5 Z"/></g>
<g><path style="opacity:1" fill="#fdfcfc" d="M -0.5,120.5 C 8.29828,160.078 32.6316,183.744 72.5,191.5C 48.1667,191.5 23.8333,191.5 -0.5,191.5C -0.5,167.833 -0.5,144.167 -0.5,120.5 Z"/></g>
<g><path style="opacity:1" fill="#4f5122" d="M 52.5,120.5 C 50.78,122.658 49.9467,125.325 50,128.5C 47.9361,127.409 45.7695,127.242 43.5,128C 42.6634,129.011 42.33,130.178 42.5,131.5C 45.836,131.533 49.0027,130.866 52,129.5C 52.4643,130.094 52.631,130.761 52.5,131.5C 49.779,131.963 47.1123,132.629 44.5,133.5C 43.791,132.596 42.791,132.263 41.5,132.5C 41.0522,127.959 41.7189,123.626 43.5,119.5C 43.8333,119.167 44.1667,118.833 44.5,118.5C 47.3106,119.08 49.9773,119.746 52.5,120.5 Z"/></g>
<g><path style="opacity:1" fill="#c28c20" d="M 71.5,119.5 C 73.371,119.859 74.871,120.859 76,122.5C 77.2515,120.999 78.2515,119.332 79,117.5C 79.3928,120.651 78.3928,123.318 76,125.5C 74.668,123.34 73.168,121.34 71.5,119.5 Z"/></g>
<g><path style="opacity:1" fill="#fdfdfd" d="M 165.5,120.5 C 165.5,144.167 165.5,167.833 165.5,191.5C 141.167,191.5 116.833,191.5 92.5,191.5C 132.975,184.358 157.308,160.691 165.5,120.5 Z"/></g>
<g><path style="opacity:1" fill="#d1961f" d="M 73.5,127.5 C 76.1694,129.087 79.1694,129.921 82.5,130C 76.6952,129.424 72.3618,131.59 69.5,136.5C 69.1667,136.167 68.8333,135.833 68.5,135.5C 70.1776,132.805 71.8442,130.139 73.5,127.5 Z"/></g>
<g><path style="opacity:1" fill="#70561f" d="M 52.5,131.5 C 56.093,132.22 57.4264,134.22 56.5,137.5C 55.8333,136.833 55.1667,136.167 54.5,135.5C 49.9115,136.823 49.5782,136.323 53.5,134C 52.7476,133.329 52.4142,132.496 52.5,131.5 Z"/></g>
<g><path style="opacity:1" fill="#9a7122" d="M 80.5,147.5 C 79.1889,144.867 77.6889,144.867 76,147.5C 74.5993,145.808 72.7659,145.141 70.5,145.5C 71.8409,143.88 73.6742,142.88 76,142.5C 76.5,143 77,143.5 77.5,144C 80.8333,144.333 84.1667,144.667 87.5,145C 84.8232,145.168 82.4898,146.001 80.5,147.5 Z"/></g>
<g><path style="opacity:1" fill="#275025" d="M 70.5,145.5 C 72.7659,145.141 74.5993,145.808 76,147.5C 77.6889,144.867 79.1889,144.867 80.5,147.5C 80.6596,149.153 81.3263,150.486 82.5,151.5C 82.6107,152.117 82.944,152.617 83.5,153C 81.5273,153.495 79.5273,153.662 77.5,153.5C 77.5432,149.107 77.0432,148.774 76,152.5C 72.845,151.181 71.0116,148.848 70.5,145.5 Z"/></g>
<g><path style="opacity:1" fill="#3f4a21" d="M 82.5,151.5 C 81.3263,150.486 80.6596,149.153 80.5,147.5C 82.4898,146.001 84.8232,145.168 87.5,145C 84.1667,144.667 80.8333,144.333 77.5,144C 77,143.5 76.5,143 76,142.5C 73.6742,142.88 71.8409,143.88 70.5,145.5C 67.8333,145.5 65.1667,145.5 62.5,145.5C 64.631,144.686 66.9644,144.186 69.5,144C 68.062,143.781 66.7287,143.281 65.5,142.5C 65.6236,141.893 65.9569,141.56 66.5,141.5C 66.9169,142.124 67.5836,142.457 68.5,142.5C 76.5641,137.65 84.5641,137.484 92.5,142C 94.6483,144.075 94.9817,146.408 93.5,149C 90.735,150.129 88.235,151.629 86,153.5C 84.5232,152.556 83.5232,151.223 83,149.5C 82.5357,150.094 82.369,150.761 82.5,151.5 Z"/></g>
<g><path style="opacity:1" fill="#534920" d="M 55.5,157.5 C 66.5,158.833 77.5,158.833 88.5,157.5C 87.7375,158.268 86.7375,158.768 85.5,159C 76.5,159.667 67.5,159.667 58.5,159C 57.2625,158.768 56.2625,158.268 55.5,157.5 Z"/></g>
</svg>

<svg xmlns="http://www.w3.org/2000/svg" width="166" height="192" style="shape-rendering:geometricPrecision;text-rendering:geometricPrecision;image-rendering:optimizeQuality;fill-rule:evenodd;clip-rule:evenodd"><path style="opacity:1" fill="#080704" d="M-.5-.5h166v121c-8.192 40.191-32.525 63.858-73 71h-20c-39.868-7.756-64.202-31.422-73-71V-.5z"/><path style="opacity:1" fill="#185b2a" d="M4.5 3.5c25.342-.333 50.675 0 76 1a10418.131 10418.131 0 0 1-75.5 96c-.5-32.332-.667-64.665-.5-97zM84.5 4.5a1444.607 1444.607 0 0 1 76-1c.167 32.002 0 64.002-.5 96a11006.777 11006.777 0 0 0-75.5-95z"/><path style="opacity:1" fill="#e6a51c" d="M81.5 4.5c1.917 1.41 3.75 3.076 5.5 5a4702.272 4702.272 0 0 0 72 91c3.767 37.966-11.733 64.799-46.5 80.5-38.7 12.872-70.533 3.372-95.5-28.5-9.848-15.233-13.848-31.899-12-50a3527.433 3527.433 0 0 0 76.5-98z"/><path style="opacity:1" fill="#0d0b05" d="M95.5 71.5c-.273 1.951.393 3.451 2 4.5-2.363.588-3.363 2.088-3 4.5-.996-.086-1.83.248-2.5 1-1.088-2.432-1.588-2.098-1.5 1-.074 1.91-1.074 3.078-3 3.5 1.098.77 1.098 1.603 0 2.5-.386 2.437-1.553 4.437-3.5 6-1.797-1.656-3.964-2.656-6.5-3a45.202 45.202 0 0 1-16 .5l2-1a14.292 14.292 0 0 1-2.5-6.5c-4.282-2.9-6.782-6.9-7.5-12 4.725-3.593 8.392-8.593 11-15a3.646 3.646 0 0 0-1-1.5c3.613.266 7.28.766 11 1.5a191.655 191.655 0 0 1 11-3c-1.006-.896-1.006-1.562 0-2a20.899 20.899 0 0 0 5.5 8c.863 2.249.363 4.082-1.5 5.5 3.047.728 5.047 2.562 6 5.5z"/><path style="opacity:1" fill="#c78f20" d="M77.5 68.5c1.725.343 2.225 1.343 1.5 3-1.039-.744-1.539-1.744-1.5-3z"/><path style="opacity:1" fill="#d0961f" d="M70.5 66.5c2.928 1.137 3.261 2.47 1 4-.929-1.189-1.262-2.522-1-4z"/><path style="opacity:1" fill="#862" d="M75.5 60.5c1.585.502 2.085 1.502 1.5 3-1.039-.744-1.539-1.744-1.5-3z"/><path style="opacity:1" fill="#2b4f25" d="M103.5 85.5a24.938 24.938 0 0 1-7-.5c-1.537-1.11-2.204-2.61-2-4.5-.363-2.412.637-3.912 3-4.5-1.607-1.049-2.273-2.549-2-4.5 1.66-1.748 3.66-2.248 6-1.5l6 6a43.361 43.361 0 0 1-8 2c2.04 2.185 3.374 4.685 4 7.5z"/><path style="opacity:1" fill="#8e6a20" d="M74.5 73.5c.06-.543.393-.876 1-1 1.083.865 1.25 1.865.5 3-.278-.916-.778-1.582-1.5-2z"/><path style="opacity:1" fill="#bc8821" d="M68.5 72.5c1.276.886 1.276 1.886 0 3-1.062-.925-1.062-1.925 0-3z"/><path style="opacity:1" fill="#ce941f" d="M80.5 73.5c3.095.619 3.429 1.619 1 3-.886-.825-1.219-1.825-1-3z"/><path style="opacity:1" fill="#987122" d="M78.5 78.5c1.113 1.446 1.28 3.113.5 5-2.418-2.18-5.084-2.513-8-1-.75-1.135-.583-2.135.5-3 2.75 1.579 5.083 1.245 7-1z"/><path style="opacity:1" fill="#7b5d21" d="M85.5 78.5c1.585.502 2.085 1.502 1.5 3-1.039-.744-1.539-1.744-1.5-3z"/><path style="opacity:1" fill="#304f24" d="M90.5 82.5c1.517.01 2.684.677 3.5 2 .836 3.656.169 6.99-2 10-.332-3.043-1.832-5.043-4.5-6 1.098-.897 1.098-1.73 0-2.5 1.926-.422 2.926-1.59 3-3.5z"/><path style="opacity:1" fill="#946d21" d="M73.5 84.5a10.521 10.521 0 0 1 3 2.5c-1.99.52-2.99-.314-3-2.5z"/><path style="opacity:1" fill="#2a5025" d="M44.5 133.5a53.768 53.768 0 0 1 8-2 2.427 2.427 0 0 0-.5-2c-2.997 1.366-6.164 2.033-9.5 2-.17-1.322.163-2.489 1-3.5 2.27-.758 4.436-.591 6.5.5-.053-3.175.78-5.842 2.5-8 7.172 3.486 9.505 9.153 7 17 2.892 3.93 5.225 3.43 7-1.5-3.934-4.045-4.6-8.378-2-13-1.944-2.153-2.444-4.653-1.5-7.5.67-.752 1.504-1.086 2.5-1 1.639-5.213 4.639-6.213 9-3 1.479 2.805 3.812 4.472 7 5 5.525-3.905 8.191-2.572 8 4a38.789 38.789 0 0 0-10 2.5 41.561 41.561 0 0 0 11-1.5c-.508 6.096-3.508 10.596-9 13.5L71 137.5a25.565 25.565 0 0 1-4.5 4c-.543.06-.876.393-1 1a10.256 10.256 0 0 0 4 1.5c-2.536.186-4.869.686-7 1.5a177.563 177.563 0 0 1-11 11.5 8.43 8.43 0 0 0 4 .5c.763.768 1.763 1.268 3 1.5 9 .667 18 .667 27 0 1.237-.232 2.237-.732 3-1.5 15.88-3.544 26.88-12.878 33-28-1.482-3.261-2.315-6.595-2.5-10 1.101 1.894 2.434 2.561 4 2a31.317 31.317 0 0 0-1-14 72.397 72.397 0 0 0-8-14 144.011 144.011 0 0 1-10.5-8 2.427 2.427 0 0 0 2-.5c-1.346-1.642-1.013-2.309 1-2a76.774 76.774 0 0 1 14 11.5l2.5-3c1.716 9.327 3.55 18.661 5.5 28-1.186 11.536-5.52 21.703-13 30.5a22.755 22.755 0 0 1 5 4l-12 1c-13.005 7.237-27.005 10.737-42 10.5-9.743-.103-19.077-2.103-28-6-1.021-.502-1.188-1.168-.5-2l4-4c1.6 1.536 3.433 2.036 5.5 1.5a51.274 51.274 0 0 0 12-12c-.26-1.261-.926-2.261-2-3-5.86.693-10.526-1.307-14-6 .228-.399.562-.565 1-.5z"/><path style="opacity:1" fill="#294d24" d="M83.5 104.5c-1.123 1.788-1.29 3.788-.5 6a10.122 10.122 0 0 0 1.5-4 2.427 2.427 0 0 1 .5-2l3.5 7c-.124.607-.457.94-1 1-1.815 1.13-3.815 1.796-6 2 .065-.438-.101-.772-.5-1l-1 2c-1.432-1.939-3.265-3.272-5.5-4-.453-.958-1.12-1.792-2-2.5a168.583 168.583 0 0 0 10.5-6.5c.464.594.631 1.261.5 2z"/><path style="opacity:1" fill="#826221" d="M83.5 104.5c-.172.992.162 1.658 1 2a10.122 10.122 0 0 1-1.5 4c-.79-2.212-.623-4.212.5-6z"/><path style="opacity:1" fill="#be8a20" d="M74.5 111.5c2.235.728 4.068 2.061 5.5 4l1-2c.399.228.565.562.5 1v2c-3.188-.528-5.521-2.195-7-5z"/><path style="opacity:1" fill="#695520" d="M87.5 112.5c3.012 2.071 3.679 4.738 2 8 .191-6.572-2.475-7.905-8-4v-2c2.185-.204 4.185-.87 6-2z"/><path style="opacity:1" fill="#b98521" d="M65.5 114.5c2.59.919 4.59 2.586 6 5-2.59-.919-4.59-2.586-6-5z"/><path style="opacity:1" fill="#fdfcfc" d="M-.5 120.5c8.798 39.578 33.132 63.244 73 71h-73v-71z"/><path style="opacity:1" fill="#4f5122" d="M52.5 120.5c-1.72 2.158-2.553 4.825-2.5 8-2.064-1.091-4.23-1.258-6.5-.5-.837 1.011-1.17 2.178-1 3.5 3.336.033 6.503-.634 9.5-2 .464.594.631 1.261.5 2a53.768 53.768 0 0 0-8 2c-.709-.904-1.709-1.237-3-1-.448-4.541.219-8.874 2-13l1-1c2.81.58 5.477 1.246 8 2z"/><path style="opacity:1" fill="#c28c20" d="M71.5 119.5c1.871.359 3.371 1.359 4.5 3a18.95 18.95 0 0 0 3-5c.393 3.151-.607 5.818-3 8a40.775 40.775 0 0 0-4.5-6z"/><path style="opacity:1" fill="#fdfdfd" d="M165.5 120.5v71h-73c40.475-7.142 64.808-30.809 73-71z"/><path style="opacity:1" fill="#d1961f" d="M73.5 127.5c2.67 1.587 5.67 2.421 9 2.5-5.805-.576-10.138 1.59-13 6.5l-1-1c1.678-2.695 3.344-5.361 5-8z"/><path style="opacity:1" fill="#70561f" d="M52.5 131.5c3.593.72 4.926 2.72 4 6l-2-2c-4.589 1.323-4.922.823-1-1.5-.752-.671-1.086-1.504-1-2.5z"/><path style="opacity:1" fill="#9a7122" d="M80.5 147.5c-1.311-2.633-2.811-2.633-4.5 0-1.4-1.692-3.234-2.359-5.5-2 1.34-1.62 3.174-2.62 5.5-3l1.5 1.5 10 1c-2.677.168-5.01 1.001-7 2.5z"/><path style="opacity:1" fill="#275025" d="M70.5 145.5c2.266-.359 4.1.308 5.5 2 1.689-2.633 3.189-2.633 4.5 0 .16 1.653.826 2.986 2 4 .11.617.444 1.117 1 1.5a18.452 18.452 0 0 1-6 .5c.043-4.393-.457-4.726-1.5-1-3.155-1.319-4.988-3.652-5.5-7z"/><path style="opacity:1" fill="#3f4a21" d="M82.5 151.5c-1.174-1.014-1.84-2.347-2-4 1.99-1.499 4.323-2.332 7-2.5l-10-1-1.5-1.5c-2.326.38-4.16 1.38-5.5 3h-8c2.131-.814 4.464-1.314 7-1.5a10.256 10.256 0 0 1-4-1.5c.124-.607.457-.94 1-1 .417.624 1.084.957 2 1 8.064-4.85 16.064-5.016 24-.5 2.148 2.075 2.482 4.408 1 7a28.224 28.224 0 0 0-7.5 4.5c-1.477-.944-2.477-2.277-3-4a2.427 2.427 0 0 0-.5 2z"/><path style="opacity:1" fill="#534920" d="M55.5 157.5c11 1.333 22 1.333 33 0-.763.768-1.763 1.268-3 1.5-9 .667-18 .667-27 0-1.237-.232-2.237-.732-3-1.5z"/></svg>
